static/img/kroki/f8b7dbcfdde8100bed2de86b3a140af2.svg

<?xml version="1.0" encoding="us-ascii" standalone="no"?><svg xmlns="http://www.w3.org/2000/svg" xmlns:xlink="http://www.w3.org/1999/xlink" contentStyleType="text/css" height="152px" preserveAspectRatio="none" style="width:438px;height:152px;" version="1.1" viewBox="0 0 438 152" width="438px" zoomAndPan="magnify"><defs/><g><!--class aws_ec2_image--><g id="elem_aws_ec2_image"><rect codeLine="23" fill="#3D176E" height="39.7891" id="aws_ec2_image" rx="2.5" ry="2.5" style="stroke:#000D19;stroke-width:0.5;" width="174" x="131" y="7"/><ellipse cx="146" cy="26.8945" fill="#ADD1B2" rx="11" ry="11" style="stroke:#181818;stroke-width:1.0;"/><path d="M148.9688,32.5352 Q148.3906,32.832 147.75,32.9727 Q147.1094,33.1289 146.4063,33.1289 Q143.9063,33.1289 142.5781,31.4883 Q141.2656,29.832 141.2656,26.707 Q141.2656,23.582 142.5781,21.9258 Q143.9063,20.2695 146.4063,20.2695 Q147.1094,20.2695 147.75,20.4258 Q148.4063,20.582 148.9688,20.8789 L148.9688,23.5977 Q148.3438,23.0195 147.75,22.7539 Q147.1563,22.4727 146.5313,22.4727 Q145.1875,22.4727 144.5,23.5508 Q143.8125,24.6133 143.8125,26.707 Q143.8125,28.8008 144.5,29.8789 Q145.1875,30.9414 146.5313,30.9414 Q147.1563,30.9414 147.75,30.6758 Q148.3438,30.3945 148.9688,29.8164 L148.9688,32.5352 Z " fill="#000000"/><text fill="#D9B8FF" font-family="Helvetica" font-size="17" lengthAdjust="spacing" textLength="132" x="165" y="32.7798">aws_ec2_image</text></g><!--class aws_ec2_instance--><g id="elem_aws_ec2_instance"><rect codeLine="26" fill="#3D176E" height="39.7891" id="aws_ec2_instance" rx="2.5" ry="2.5" style="stroke:#000D19;stroke-width:0.5;" width="192" x="7" y="106.79"/><ellipse cx="22" cy="126.6845" fill="#ADD1B2" rx="11" ry="11" style="stroke:#181818;stroke-width:1.0;"/><path d="M24.9688,132.3252 Q24.3906,132.622 23.75,132.7627 Q23.1094,132.9189 22.4063,132.9189 Q19.9063,132.9189 18.5781,131.2783 Q17.2656,129.622 17.2656,126.497 Q17.2656,123.372 18.5781,121.7158 Q19.9063,120.0595 22.4063,120.0595 Q23.1094,120.0595 23.75,120.2158 Q24.4063,120.372 24.9688,120.6689 L24.9688,123.3877 Q24.3438,122.8095 23.75,122.5439 Q23.1563,122.2627 22.5313,122.2627 Q21.1875,122.2627 20.5,123.3408 Q19.8125,124.4033 19.8125,126.497 Q19.8125,128.5908 20.5,129.6689 Q21.1875,130.7314 22.5313,130.7314 Q23.1563,130.7314 23.75,130.4658 Q24.3438,130.1845 24.9688,129.6064 L24.9688,132.3252 Z " fill="#000000"/><text fill="#D9B8FF" font-family="Helvetica" font-size="17" lengthAdjust="spacing" textLength="150" x="41" y="132.5698">aws_ec2_instance</text></g><!--class aws_ec2_snapshot--><g id="elem_aws_ec2_snapshot"><rect codeLine="29" fill="#3D176E" height="39.7891" id="aws_ec2_snapshot" rx="2.5" ry="2.5" style="stroke:#000D19;stroke-width:0.5;" width="197" x="234.5" y="106.79"/><ellipse cx="249.5" cy="126.6845" fill="#ADD1B2" rx="11" ry="11" style="stroke:#181818;stroke-width:1.0;"/><path d="M252.4688,132.3252 Q251.8906,132.622 251.25,132.7627 Q250.6094,132.9189 249.9063,132.9189 Q247.4063,132.9189 246.0781,131.2783 Q244.7656,129.622 244.7656,126.497 Q244.7656,123.372 246.0781,121.7158 Q247.4063,120.0595 249.9063,120.0595 Q250.6094,120.0595 251.25,120.2158 Q251.9063,120.372 252.4688,120.6689 L252.4688,123.3877 Q251.8438,122.8095 251.25,122.5439 Q250.6563,122.2627 250.0313,122.2627 Q248.6875,122.2627 248,123.3408 Q247.3125,124.4033 247.3125,126.497 Q247.3125,128.5908 248,129.6689 Q248.6875,130.7314 250.0313,130.7314 Q250.6563,130.7314 251.25,130.4658 Q251.8438,130.1845 252.4688,129.6064 L252.4688,132.3252 Z " fill="#000000"/><text fill="#D9B8FF" font-family="Helvetica" font-size="17" lengthAdjust="spacing" textLength="155" x="268.5" y="132.5698">aws_ec2_snapshot</text></g><!--link aws_ec2_image to aws_ec2_instance--><g id="link_aws_ec2_image_aws_ec2_instance"><path codeLine="32" d="M195.28,47.22 C175.12,64.36 150.3902,85.3825 130.2402,102.5225 " fill="none" id="aws_ec2_image-to-aws_ec2_instance" style="stroke:#1A83AF;stroke-width:2.0;"/><polygon fill="#1A83AF" points="125.67,106.41,135.117,103.6255,129.4785,103.1704,129.9337,97.5319,125.67,106.41" style="stroke:#1A83AF;stroke-width:2.0;"/></g><!--link aws_ec2_image to aws_ec2_snapshot--><g id="link_aws_ec2_image_aws_ec2_snapshot"><path codeLine="33" d="M240.72,47.22 C260.88,64.36 285.6098,85.3825 305.7598,102.5225 " fill="none" id="aws_ec2_image-to-aws_ec2_snapshot" style="stroke:#1A83AF;stroke-width:2.0;"/><polygon fill="#1A83AF" points="310.33,106.41,306.0663,97.5319,306.5215,103.1704,300.883,103.6255,310.33,106.41" style="stroke:#1A83AF;stroke-width:2.0;"/></g><!--SRC=[ZP1DQy9048Rl-HKBdWMZjCPB8GhINgJKtagHCJjh5fFTC3CssDB_tbfhMHC_UftduPrt9hSQ5PQLR5M9vHA98rvRLm51gL8YNqzyuKbrZ04p63RXr3kvAioWH7MFnHkApQ1fFESsMpjaLlq0ZI5RhyXldDx72u7ZRuHE0cjI07CgGdQv4GpAwD4oCQPfDaCx0nqFRx6bUT98lqglrzFngAbSNNNnxZzZRjzHnU7JPbwmLREruiUws79d12LRXnxusOwFeBLrAtKJp9xsdSWX7StdEMXVxsm31OThM93GoxR2IUig72NQ34_A3-VaADkzJa7D2ypw2rl22jL757qsWMC1bvraxA3YtCkU7KTrNpfncWpIwMlthXNs7_SG7dq1]--></g></svg>

<svg xmlns="http://www.w3.org/2000/svg" width="438" height="152" viewBox="0 0 438 152"><rect width="174" height="39.789" x="131" y="7" fill="#3D176E" rx="2.5" ry="2.5" style="stroke:#000d19;stroke-width:.5"/><circle cx="146" cy="26.895" r="11" fill="#ADD1B2" style="stroke:#181818;stroke-width:1"/><path d="M148.969 32.535q-.578.297-1.219.438-.64.156-1.344.156-2.5 0-3.828-1.64-1.312-1.657-1.312-4.782t1.312-4.781q1.328-1.656 3.828-1.656.703 0 1.344.156.656.156 1.219.453v2.719q-.625-.578-1.219-.844-.594-.281-1.219-.281-1.344 0-2.031 1.078-.687 1.062-.687 3.156t.687 3.172q.688 1.062 2.031 1.062.625 0 1.219-.265.594-.281 1.219-.86z"/><text x="165" y="32.78" fill="#D9B8FF" font-family="Helvetica" font-size="17" textLength="132">aws_ec2_image</text><rect width="192" height="39.789" x="7" y="106.79" fill="#3D176E" rx="2.5" ry="2.5" style="stroke:#000d19;stroke-width:.5"/><circle cx="22" cy="126.684" r="11" fill="#ADD1B2" style="stroke:#181818;stroke-width:1"/><path d="M24.969 132.325q-.578.297-1.219.438-.64.156-1.344.156-2.5 0-3.828-1.64-1.312-1.657-1.312-4.782t1.312-4.781q1.328-1.656 3.828-1.656.703 0 1.344.156.656.156 1.219.453v2.719q-.625-.579-1.219-.844-.594-.281-1.219-.281-1.343 0-2.031 1.078-.687 1.062-.687 3.156t.687 3.172q.688 1.062 2.031 1.062.625 0 1.219-.265.594-.281 1.219-.86z"/><text x="41" y="132.57" fill="#D9B8FF" font-family="Helvetica" font-size="17" textLength="150">aws_ec2_instance</text><rect width="197" height="39.789" x="234.5" y="106.79" fill="#3D176E" rx="2.5" ry="2.5" style="stroke:#000d19;stroke-width:.5"/><circle cx="249.5" cy="126.684" r="11" fill="#ADD1B2" style="stroke:#181818;stroke-width:1"/><path d="M252.469 132.325q-.578.297-1.219.438-.64.156-1.344.156-2.5 0-3.828-1.64-1.312-1.657-1.312-4.782t1.312-4.781q1.328-1.656 3.828-1.656.703 0 1.344.156.656.156 1.219.453v2.719q-.625-.579-1.219-.844-.594-.281-1.219-.281-1.344 0-2.031 1.078-.687 1.062-.687 3.156t.687 3.172q.688 1.062 2.031 1.062.625 0 1.219-.265.594-.281 1.219-.86z"/><text x="268.5" y="132.57" fill="#D9B8FF" font-family="Helvetica" font-size="17" textLength="155">aws_ec2_snapshot</text><path fill="none" d="M195.28 47.22c-20.16 17.14-44.89 38.162-65.04 55.302" style="stroke:#1a83af;stroke-width:2"/><path fill="#1A83AF" d="m125.67 106.41 9.447-2.784-5.638-.456.455-5.638z" style="stroke:#1a83af;stroke-width:2"/><path fill="none" d="M240.72 47.22c20.16 17.14 44.89 38.162 65.04 55.302" style="stroke:#1a83af;stroke-width:2"/><path fill="#1A83AF" d="m310.33 106.41-4.264-8.878.456 5.638-5.639.456z" style="stroke:#1a83af;stroke-width:2"/></svg>
